icons/mobile/24/svg/reading-list-slash-24.svg

<svg width="24" height="24" viewBox="0 0 24 24" fill="none" xmlns="http://www.w3.org/2000/svg">
<path d="M10.1249 14.9999C10.6082 14.9999 10.9999 15.3917 10.9999 15.8749C10.9999 16.3582 10.6082 16.7499 10.1249 16.7499H6.37493C5.89168 16.7499 5.49993 16.3582 5.49993 15.8749C5.49993 15.3917 5.89168 14.9999 6.37493 14.9999H10.1249Z" fill="black"/>
<path fill-rule="evenodd" clip-rule="evenodd" d="M2.25579 2.25579C2.5975 1.91408 3.15237 1.91408 3.49407 2.25579L21.7441 20.5058C22.0858 20.8475 22.0858 21.4024 21.7441 21.7441C21.4024 22.0858 20.8475 22.0858 20.5058 21.7441L19.1288 20.3671C18.7287 20.4182 18.311 20.4648 17.8779 20.497C17.2959 20.54 16.7398 20.5605 16.2148 20.5605C15.1968 20.5635 14.1878 20.8721 13.2939 21.4521C12.9009 21.708 12.4499 21.8359 11.9999 21.8359C11.55 21.8359 11.099 21.708 10.706 21.4521C9.81203 20.8721 8.80304 20.5635 7.78509 20.5605C7.26011 20.5595 6.70398 20.541 6.122 20.497C5.62509 20.46 5.14815 20.4086 4.69622 20.3466C3.15924 20.1346 1.99996 18.803 1.99993 17.247V6.75286C1.99996 5.80262 2.43266 4.93643 3.11907 4.35736L2.25579 3.49407C1.91408 3.15237 1.91408 2.5975 2.25579 2.25579ZM4.36517 5.60345C3.99268 5.85231 3.74996 6.27892 3.74993 6.75286V17.248C3.74995 17.9328 4.25872 18.5201 4.93353 18.6132C5.3515 18.6712 5.79289 18.7188 6.25286 18.7538C6.78986 18.7938 7.303 18.8134 7.789 18.8134C9.14397 18.8164 10.4831 19.2222 11.6591 19.9872C11.866 20.122 12.1339 20.122 12.3408 19.9872C13.5167 19.2222 14.8559 18.8164 16.2109 18.8134C16.6303 18.8125 17.0696 18.795 17.5273 18.7656L10.9853 12.2236C10.9939 12.2728 10.9999 12.3232 10.9999 12.3749C10.9999 12.8582 10.6082 13.2499 10.1249 13.2499H6.37493C5.89168 13.2499 5.49993 12.8582 5.49993 12.3749C5.49993 11.8917 5.89168 11.4999 6.37493 11.4999H10.1249C10.1763 11.4999 10.2264 11.5051 10.2753 11.5136L8.51165 9.74993H6.37493C5.89193 9.74993 5.49993 9.35793 5.49993 8.87493C5.49993 8.39193 5.89193 7.99993 6.37493 7.99993H6.76165L4.36517 5.60345Z" fill="black"/>
<path d="M16.8056 3.4472C17.1486 3.4572 17.5089 3.47489 17.8769 3.50189C18.3748 3.53988 18.8517 3.59127 19.3036 3.65325C20.8406 3.86525 21.9999 5.1969 21.9999 6.75286V17.247C21.9999 17.657 21.9145 18.0491 21.7675 18.412L20.2499 16.8935V6.75286C20.2499 6.06802 19.7411 5.48078 19.0663 5.38763C18.6484 5.32963 18.207 5.282 17.747 5.247C17.407 5.222 17.0768 5.2052 16.7568 5.1972C15.5688 5.16123 14.3588 5.51111 13.2939 6.20208C12.5089 6.71399 11.4909 6.71399 10.706 6.20208C10.082 5.79708 9.40866 5.52522 8.71966 5.36322L6.82318 3.46575C6.9461 3.46075 7.0763 3.4502 7.19622 3.4472C8.75013 3.41026 10.2952 3.84834 11.6591 4.73529C11.866 4.87004 12.1339 4.87004 12.3408 4.73529C13.7037 3.84835 15.2357 3.40127 16.8056 3.4472Z" fill="black"/>
</svg>

<!-- This Source Code Form is subject to the terms of the Mozilla Public
   - License, v. 2.0. If a copy of the MPL was not distributed with this
   - file, You can obtain one at http://mozilla.org/MPL/2.0/. -->
<svg xmlns="http://www.w3.org/2000/svg" width="24" height="24" fill="none" viewBox="0 0 24 24">
    <path fill="#000" d="M10.125 15a.875.875 0 1 1 0 1.75h-3.75a.875.875 0 1 1 0-1.75z" />
    <path fill="#000" fill-rule="evenodd" d="M2.256 2.256a.876.876 0 0 1 1.238 0l18.25 18.25a.876.876 0 0 1-1.238 1.238l-1.377-1.377a23 23 0 0 1-2.914.193 5.4 5.4 0 0 0-2.921.892 2.37 2.37 0 0 1-2.588 0 5.4 5.4 0 0 0-2.92-.892 23 23 0 0 1-3.09-.213A3.14 3.14 0 0 1 2 17.247V6.753c0-.95.433-1.817 1.12-2.396l-.864-.863a.876.876 0 0 1 0-1.238m2.11 3.347a1.39 1.39 0 0 0-.616 1.15v10.495a1.38 1.38 0 0 0 1.184 1.365 21.5 21.5 0 0 0 2.855.2 7.13 7.13 0 0 1 3.87 1.174.63.63 0 0 0 .682 0 7.13 7.13 0 0 1 3.87-1.174q.63-.002 1.316-.047l-6.542-6.542q.014.074.015.15a.875.875 0 0 1-.875.876h-3.75a.875.875 0 1 1 0-1.75h3.75q.076 0 .15.014L8.512 9.75H6.375a.875.875 0 0 1 0-1.75h.387z" clip-rule="evenodd" />
    <path fill="#000" d="M16.806 3.447a24 24 0 0 1 2.498.206A3.14 3.14 0 0 1 22 6.753v10.494c0 .41-.085.802-.233 1.165l-1.517-1.518V6.752a1.38 1.38 0 0 0-1.184-1.365 22 22 0 0 0-2.31-.19c-1.187-.037-2.397.313-3.462 1.004a2.37 2.37 0 0 1-2.588 0 6.3 6.3 0 0 0-1.986-.839L6.823 3.466c.123-.005.253-.016.373-.019a7.8 7.8 0 0 1 4.463 1.288.63.63 0 0 0 .682 0c1.363-.887 2.895-1.334 4.465-1.288" />
</svg>
